!!!SOCIAL_FUNCTION:	songs of war
!!!PDT:	1918

Specific Region: Dakotas, Minnesota, Montana, Nebraska
!!!REG: Dakotas and Montana
!!!LING_GROUP: Siouan
!!!LANG: Tone
!!!OTL@ENG: Song of the Strong Heart Society (a)
!!!ONM: No. 116
**kern
*Imale
*clefF4
*k[b-e-a-]
*M2/4
*MM84
16f
8.f
16f
8.e-
=2
16e-
8.e-
4B-
=3
16c
8.B-
4B-
=4||
*M3/4
16c
8.B-
4B-
8.B-
16B-
=5
8.e-
16f
4e-
8.e-
16B-
=6
16e-
8.B-
4B-
8.B-
16F
=7
16G
8.F
8F
16E-
16D
4E-
=8||
*M2/4
8E-
16F
16E-
8E-
8D
=9
16E-
8.D
4BB-
=10
4.BB-
8BB-
=11||
*M3/4
2BB-
8.B-
16B-
=12
8.e-
16e-
8e-
8e-
8e-
8e-
=13
(16e-
8.B-)
8B-
8B-
8B-
8B-
=14||
*M2/4
(16B-
8F
16G)
4F
=15
8.E-
16D
4E-
=16
8E-
16F
16E-
8E-
8D
=17
16E-
8.D
8.BB-
16BB-
=18
4.BB-
8BB-
=19
2BB-
==
*-
!!!CNT: Native American -- Sioux
!!!MRD: 1911/07//-1914///
!!!OCL: Frances Densmore
!!!YOR1: Teton Sioux Music, Bulletin 61,
!!!YOR2: Bureau of American Ethnology, Smithsonian Institution
!!!PPR: Government Printing Office
!!!PPP: Washington, D.C.
!!!PDT: 1918///
!!!ENC: Craig Stuart Sapp
!!!END: 2002/03/25/
!!!EEV: 2002/03/31/
!!!AGN: War Song
!!!MPN@@SIO: Wangbli'-waha'chungka
!!!MPN@ENG: Eagle Shield
!!!TXO: Teton Sioux
!!!MLC: Standing Rock Reservation, South Dakota, United States of America
!!!ARL: 45.9/-100.7#
!!!catalog: Catalogue No. 509
!!!PPG: 322
!!!EFL: 116/245
!!!VTS: 1653763751
